X:1
T:What Would You Do? (Married a Soldier)
M:6/8
L:1/8
K:A
 E| AA,A, A,A,C| EFA F2 E| EEE CCC| DDC B,2 A| AA,A, A,A,C| EFA F2 E|\
 EEE CCC| B,CB, A,2 B| cAA BAB| c/2c/2 BA A2 B| cBc ABc| d/2d/2 dd Bcd|\
 c/2c/2 BA F2 A| E2 A C2 D| E/2F/2 EE D2 B,| C/2C/2 CA, A,2||

